X:9350
T:Latee Quadrill. BF13.057
T:L'Ete Quadrille. BF13.057
M:2/4
Q:80
S:J.Lishman(?)MS,c1825,Lakes,Browne Coll.
R:Quadrille
O:England
A:Lakes
N:At NB it says "Miss" above the stave..CGP
Z:vmp.Chris Partington
K:G
"AS WRITTEN"dg fd|eed2|ce Bd|Ac BG|dg fd|eed2|cdeB Bd cAG2||!
Be edcB|efga fe|bbg|aaf2|"NB"a/g/f/g/ ef|f^de2||!
A,|D2F2|EGEC|DFEC|FCA,2|D2F2|EGEC|D2F2E2C2|DDD2||!
"NB"gg/dB2|b/b/g2|aaf2||!
EDITED VERSION
"dg fd|eed2|ce Bd|Ac BG|dg fd|eed2|c/d/e/B/ Bd| cAG2||!
Be e/d/c/B/|e/f/g/a/ fe|bbg2|aaf2|"NB"a/g/f/g/ ef|f^de2||!
A,|D2F2|EGEC|DFEC|FCA,2|D2F2|EGEC|DFEC|DDD2||!
"NB"gg/dB2|b/b/g2|aaf2||!


